synths/sDAI.svg

<svg width="42" height="42" viewBox="0 0 42 42" fill="none" xmlns="http://www.w3.org/2000/svg">
<g clip-path="url(#clip0_7277_57946)">
<mask id="mask0_7277_57946" style="mask-type:alpha" maskUnits="userSpaceOnUse" x="0" y="0" width="42" height="42">
<circle cx="21" cy="21" r="21" transform="matrix(-1 0 0 1 42 0)" fill="url(#paint0_linear_7277_57946)"/>
</mask>
<g mask="url(#mask0_7277_57946)">
<circle cx="21" cy="21" r="21" transform="matrix(-1 0 0 1 42 0)" fill="#34EDB3"/>
<circle cx="18.2" cy="18.2" r="18.2" transform="matrix(-1 0 0 1 39.2 2.80005)" fill="white"/>
</g>
<circle cx="16.1" cy="16.1" r="16.1" transform="matrix(-1 0 0 1 37.1 4.90002)" fill="#0B0B22"/>
<g clip-path="url(#clip1_7277_57946)">
<path d="M21 4.90002C29.8926 4.90002 37.1 12.1089 37.1 21C37.1 29.8926 29.8926 37.1 21 37.1C12.1089 37.1 4.90002 29.8919 4.90002 21C4.90002 12.1089 12.1089 4.90002 21 4.90002Z" fill="#F5AC37"/>
<path d="M21.9154 22.1368H28.0332C28.1636 22.1368 28.2252 22.1368 28.2346 21.9659C28.2846 21.3435 28.2846 20.7175 28.2346 20.0945C28.2346 19.9735 28.1744 19.9235 28.0433 19.9235H15.868C15.7173 19.9235 15.6767 19.9735 15.6767 20.1147V21.9057C15.6767 22.1368 15.6767 22.1368 15.9179 22.1368H21.9154V22.1368ZM27.5514 17.8304C27.5688 17.7847 27.5688 17.7347 27.5514 17.6898C27.4492 17.4674 27.3282 17.2551 27.1877 17.0559C26.9761 16.7153 26.7269 16.4016 26.4429 16.1198C26.3088 15.9495 26.1538 15.7967 25.9799 15.667C25.109 14.9258 24.0737 14.4013 22.9609 14.1376C22.3994 14.0115 21.8256 13.9514 21.2503 13.9564H15.8469C15.6962 13.9564 15.676 14.0166 15.676 14.1477V17.7195C15.676 17.8702 15.676 17.9108 15.8672 17.9108H27.4789C27.4789 17.9108 27.5796 17.8905 27.5999 17.8304H27.5506H27.5514ZM27.5514 24.2299C27.3804 24.2111 27.2079 24.2111 27.037 24.2299H15.8781C15.7274 24.2299 15.6767 24.2299 15.6767 24.4314V27.9235C15.6767 28.0843 15.6767 28.1249 15.8781 28.1249H21.0301C21.2764 28.1437 21.5227 28.1263 21.764 28.0749C22.5117 28.0213 23.2471 27.859 23.9484 27.5917C24.2034 27.5033 24.4497 27.3881 24.6823 27.2497H24.7526C25.9603 26.6215 26.9413 25.6348 27.5601 24.4234C27.5601 24.4234 27.6303 24.2712 27.5514 24.2314V24.2299ZM13.6546 29.9354V29.8753V27.5308V26.736V24.3712C13.6546 24.2401 13.6546 24.2205 13.4937 24.2205H11.3101C11.1891 24.2205 11.1391 24.2205 11.1391 24.0597V22.1477H13.4735C13.6039 22.1477 13.6546 22.1477 13.6546 21.9767V20.085C13.6546 19.964 13.6546 19.9343 13.4937 19.9343H11.3101C11.1891 19.9343 11.1391 19.9343 11.1391 19.7735V18.0028C11.1391 17.8919 11.1391 17.8622 11.2999 17.8622H13.4633C13.614 17.8622 13.6546 17.8622 13.6546 17.671V12.2473C13.6546 12.0865 13.6546 12.0459 13.856 12.0459H21.4025C21.9502 12.0676 22.4943 12.1278 23.0326 12.227C24.1418 12.4321 25.2076 12.8284 26.182 13.3942C26.8283 13.7746 27.4231 14.2339 27.9527 14.7628C28.3512 15.1765 28.7106 15.6242 29.0294 16.101C29.346 16.5842 29.609 17.1008 29.8154 17.6405C29.8408 17.7811 29.9756 17.876 30.1161 17.8521H31.9172C32.1484 17.8521 32.1484 17.8521 32.1585 18.0738V19.7242C32.1585 19.8851 32.0984 19.9256 31.9368 19.9256H30.5479C30.4074 19.9256 30.3668 19.9256 30.3769 20.1068C30.432 20.7197 30.432 21.3348 30.3769 21.9477C30.3769 22.1187 30.3769 22.139 30.5689 22.139H32.1578C32.2281 22.2296 32.1578 22.3201 32.1578 22.4114C32.1679 22.5281 32.1679 22.6462 32.1578 22.7628V23.9807C32.1578 24.1517 32.1078 24.2024 31.9564 24.2024H30.0545C29.922 24.1771 29.793 24.2618 29.7626 24.3937C29.3097 25.571 28.5852 26.6266 27.6492 27.4728C27.3072 27.7807 26.9478 28.0706 26.5726 28.3379C26.1697 28.5697 25.7778 28.811 25.3648 29.0023C24.6048 29.3442 23.8078 29.5964 22.9899 29.7565C22.2132 29.8956 21.4257 29.9586 20.6352 29.9478H13.6517V29.9376L13.6546 29.9354Z" fill="#FEFEFD"/>
</g>
</g>
<defs>
<linearGradient id="paint0_linear_7277_57946" x1="21" y1="0" x2="21" y2="61.4091" gradientUnits="userSpaceOnUse">
<stop stop-color="#08021E"/>
<stop offset="1" stop-color="#1F0777"/>
</linearGradient>
<clipPath id="clip0_7277_57946">
<rect width="42" height="42" fill="white"/>
</clipPath>
<clipPath id="clip1_7277_57946">
<rect width="32.2" height="32.2" fill="white" transform="translate(4.90002 4.90002)"/>
</clipPath>
</defs>
</svg>

<svg xmlns="http://www.w3.org/2000/svg" width="42" height="42" fill="none"><g clip-path="url(#a)"><mask id="c" width="42" height="42" x="0" y="0" maskUnits="userSpaceOnUse" style="mask-type:alpha"><circle cx="21" cy="21" r="21" fill="url(#b)" transform="matrix(-1 0 0 1 42 0)"/></mask><g mask="url(#c)"><circle cx="21" cy="21" r="21" fill="#34EDB3" transform="matrix(-1 0 0 1 42 0)"/><circle cx="18.2" cy="18.2" r="18.2" fill="#fff" transform="matrix(-1 0 0 1 39.2 2.8)"/></g><circle cx="16.1" cy="16.1" r="16.1" fill="#0B0B22" transform="matrix(-1 0 0 1 37.1 4.9)"/><g clip-path="url(#d)"><path fill="#F5AC37" d="M21 4.9c8.893 0 16.1 7.209 16.1 16.1 0 8.893-7.207 16.1-16.1 16.1-8.891 0-16.1-7.208-16.1-16.1 0-8.891 7.209-16.1 16.1-16.1Z"/><path fill="#FEFEFD" d="M21.915 22.137h6.118c.13 0 .192 0 .202-.171.05-.623.05-1.248 0-1.872 0-.12-.06-.17-.192-.17H15.868c-.15 0-.191.05-.191.19v1.792c0 .23 0 .23.24.23h5.998Zm5.636-4.307a.196.196 0 0 0 0-.14 3.985 3.985 0 0 0-.363-.634 5.132 5.132 0 0 0-.745-.936 2.47 2.47 0 0 0-.463-.453 7.233 7.233 0 0 0-3.02-1.53 7.507 7.507 0 0 0-1.71-.18h-5.403c-.15 0-.171.06-.171.19v3.572c0 .151 0 .192.191.192H27.48s.1-.02.12-.08h-.048Zm0 6.4a2.353 2.353 0 0 0-.514 0H15.878c-.15 0-.201 0-.201.201v3.492c0 .161 0 .202.201.202h5.152c.246.019.493.001.734-.05a7.67 7.67 0 0 0 2.184-.483 4 4 0 0 0 .734-.342h.07a6.538 6.538 0 0 0 2.808-2.827s.07-.152-.009-.192v-.001Zm-13.896 5.705v-5.564c0-.13 0-.15-.161-.15H11.31c-.12 0-.17 0-.17-.161v-1.912h2.333c.13 0 .182 0 .182-.171v-1.892c0-.121 0-.15-.161-.15H11.31c-.12 0-.17 0-.17-.162v-1.77c0-.111 0-.14.16-.14h2.163c.151 0 .192 0 .192-.192v-5.424c0-.16 0-.201.201-.201h7.546c.548.022 1.092.082 1.63.181a9.838 9.838 0 0 1 3.15 1.167c.646.38 1.241.84 1.77 1.369.4.414.759.861 1.077 1.338.317.483.58 1 .786 1.54.026.14.16.235.301.211h1.801c.231 0 .231 0 .241.222v1.65c0 .161-.06.202-.221.202h-1.39c-.14 0-.18 0-.17.18.055.614.055 1.229 0 1.842 0 .17 0 .191.192.191h1.589c.07.09 0 .181 0 .272.01.117.01.235 0 .352v1.218c0 .17-.05.221-.202.221h-1.901a.252.252 0 0 0-.292.192 8.048 8.048 0 0 1-2.114 3.079c-.342.308-.701.598-1.076.865-.403.232-.795.473-1.208.664-.76.342-1.557.594-2.375.755-.777.139-1.564.202-2.355.19h-6.983v-.01l.003-.002Z"/></g></g><defs><clipPath id="a"><path fill="#fff" d="M0 0h42v42H0z"/></clipPath><clipPath id="d"><path fill="#fff" d="M4.9 4.9h32.2v32.2H4.9z"/></clipPath><linearGradient id="b" x1="21" x2="21" y1="0" y2="61.409" gradientUnits="userSpaceOnUse"><stop stop-color="#08021E"/><stop offset="1" stop-color="#1F0777"/></linearGradient></defs></svg>
